packages/kaspersky-hexa-ui-icons/src/iconsSVGs/16/WaterSensor.svg

<svg width="16" height="16" viewBox="0 0 16 16" fill="none" xmlns="http://www.w3.org/2000/svg">
<path fill-rule="evenodd" clip-rule="evenodd" d="M8.44207 1.52378L7.99977 2.0001L7.55748 1.52378C7.80687 1.2922 8.19267 1.2922 8.44207 1.52378ZM7.99977 2.90848C7.92074 2.98801 7.83303 3.07735 7.73822 3.17554C7.31025 3.61879 6.74126 4.23875 6.174 4.94782C5.605 5.65907 5.0485 6.44668 4.637 7.2256C4.21997 8.01498 3.98311 8.73752 3.98311 9.33343C3.98311 11.6232 5.87337 13.3501 7.99977 13.3501C10.1262 13.3501 12.0164 11.6232 12.0164 9.33343C12.0164 8.73752 11.7796 8.01498 11.3625 7.2256C10.951 6.44668 10.3945 5.65907 9.82554 4.94782C9.25829 4.23875 8.68929 3.61879 8.26133 3.17554C8.16652 3.07735 8.0788 2.98801 7.99977 2.90848ZM7.55748 1.52378C7.55759 1.52367 7.55748 1.52378 7.99977 2.0001C8.44207 1.52378 8.44195 1.52367 8.44207 1.52378L8.44356 1.52517L8.44675 1.52814L8.45808 1.53876L8.49987 1.57825C8.53593 1.6125 8.58805 1.66243 8.65394 1.72664C8.78567 1.85501 8.97267 2.04069 9.19655 2.27257C9.64358 2.73557 10.2413 3.38645 10.8407 4.13571C11.4383 4.88279 12.0485 5.74101 12.512 6.61834C12.97 7.48522 13.3164 8.42934 13.3164 9.33343C13.3164 12.377 10.8078 14.6501 7.99977 14.6501C5.19179 14.6501 2.68311 12.377 2.68311 9.33343C2.68311 8.42934 3.02958 7.48522 3.48755 6.61834C3.95104 5.74101 4.56121 4.88279 5.15887 4.13571C5.75829 3.38645 6.35596 2.73557 6.80299 2.27257C7.02688 2.04069 7.21388 1.85501 7.34561 1.72664C7.41149 1.66243 7.46361 1.6125 7.49968 1.57825L7.54146 1.53876L7.5528 1.52814L7.55748 1.52378Z" fill="black"/>
</svg>

<svg xmlns="http://www.w3.org/2000/svg" width="16" height="16" fill="none" viewBox="0 0 16 16"><path fill="#000" fill-rule="evenodd" d="M8.4423 1.5237 8 2l-.4423-.4763a.65.65 0 0 1 .8846 0M8 2.9084c-.079.0795-.1668.1688-.2616.267-.428.4433-.997 1.0632-1.5642 1.7723-.569.7112-1.1255 1.4989-1.537 2.2778-.417.7894-.654 1.5119-.654 2.1078C3.9833 11.6231 5.8736 13.35 8 13.35s4.0166-1.7269 4.0166-4.0167c0-.5959-.2368-1.3184-.6539-2.1078-.4115-.779-.968-1.5666-1.537-2.2778-.5672-.709-1.1362-1.329-1.5642-1.7723A26 26 0 0 0 8 2.9084m-.4423-1.3847c0-.0002 0 0 .4423.4763.4422-.4763.4421-.4764.4422-.4763l.0015.0013.0032.003.0114.0106.0418.0395c.036.0343.0881.0842.154.1484.1318.1284.3187.314.5426.546.447.463 1.0447 1.1138 1.6442 1.863.5976.7472 1.2078 1.6054 1.6713 2.4827.4579.8669.8044 1.811.8044 2.7151 0 3.0436-2.5087 5.3167-5.3166 5.3167s-5.3167-2.2731-5.3167-5.3167c0-.904.3465-1.8482.8044-2.715.4635-.8774 1.0737-1.7356 1.6714-2.4827.5994-.7493 1.197-1.4001 1.644-1.8631.224-.232.411-.4176.5427-.546a17 17 0 0 1 .154-.1484l.0418-.0395.0114-.0106z"/></svg>
